relation-only-one-to-one.svg

<svg fill="currentColor" viewBox="0 0 24 24"><path d="M22 15v2h-3v2h-2v-2h-6V9H8v2H6V9H5v2H3V9H2V7h1V5h2v2h1V5h2v2h5v8h4v-2h2v2Z"/></svg>

<svg  viewBox="0 0 24 24" fill="currentColor"><path  d="M22 15V17H19V19H17V17H11V9H8V11H6V9H5V11H3V9H2V7H3V5H5V7H6V5H8V7H13V15H17V13H19V15Z"/></svg>
